X: 1
T: The Hag At The Churn
R: jig
M: 6/8
L: 1/8
K: Dmix
"D"A2G ADD|"D"A2G Adc|"D"A2G ADD|"C"EFG "Am"EFG|
"D"A2G ADD|"D"A2G Adc|"D"A2G ADD|"C"EFG "Am"EFG|]
"D"AdB "C"c3|"D"Add "C"efg|"D"AdB "C"c3|"C"EDE "Am"GED|
"D"AdB "C"c3|"D"Add "A7"efg|"D"fge "Am"dcA|"C"GEF GED||



